ePapirus/22x22/actions/category-edit.svg

<svg xmlns="http://www.w3.org/2000/svg" width="22" height="22" version="1.1">
 <defs>
  <style id="current-color-scheme" type="text/css">
   .ColorScheme-Text { color:#6e6e6e; } .ColorScheme-Highlight { color:#4285f4; }
  </style>
 </defs>
 <g transform="matrix(1.1428571,0,0,1.1538462,1.8571432,0.692307)">
  <path style="fill:currentColor" class="ColorScheme-Text" transform="matrix(0.87500003,0,0,0.86666663,-1.6250004,-0.59999938)" d="M 4.1425781,3 C 4.1425781,3 3,3.0004507 3,4.1542969 V 16.845703 C 3,16.845703 2.999721,18 4.1425781,18 H 14 v -0.75 l 3.617188,-3.619141 0.707031,-0.707031 0.519531,-0.523437 0.002,-0.002 c 0.04753,-0.04754 0.101127,-0.08572 0.154297,-0.125 V 12 6.2617188 C 19,5.1078725 17.857422,5 17.857422,5 H 12.142578 L 9.8574219,3 Z"/>
 </g>
 <path style="fill:currentColor" class="ColorScheme-Text" d="m 19.805711,13 c -0.09101,0 -0.182726,0.03479 -0.253395,0.105469 l -0.697201,0.703125 1.335814,1.335937 0.703061,-0.697265 c 0.141347,-0.141352 0.141347,-0.364012 0,-0.505372 L 20.057642,13.105469 C 19.986972,13.034789 19.896725,13 19.805711,13 Z M 18.32489,14.338867 15,17.664063 V 19 h 1.335814 l 3.324891,-3.325195 z"/>
</svg>

<svg xmlns="http://www.w3.org/2000/svg" width="22" height="22" version="1.1">
 <defs>
  <style id="current-color-scheme" type="text/css">
   .ColorScheme-Text { color:#6e6e6e; } .ColorScheme-Highlight { color:#4285f4; }
  </style>
 </defs>
 <path style="fill:currentColor" class="ColorScheme-Text" d="M 4,3 C 4,3 3,3 3,4 V 17 C 3,17 3,18 4,18 H 14 V 17.25 L 19,12.273 V 6 C 19,5 18,5 18,5 H 12 L 10,3 Z"/>
 <path style="fill:currentColor" class="ColorScheme-Text" d="M 19.806,13 C 19.715,13 19.623,13.035 19.552,13.105 L 18.855,13.809 20.191,15.145 20.894,14.447 C 21.035,14.306 21.035,14.083 20.894,13.942 L 20.058,13.105 C 19.987,13.035 19.897,13 19.806,13 Z M 18.325,14.339 15,17.664 V 19 H 16.336 L 19.661,15.675 Z"/>
</svg>
